P2
84 52
255
58 69 56 71 58 60 88 62 47 52 58 50 52 47 51 52 51 56 49 55 84 71 64 67 64 82 96 106 89 80 85 71 70 75 87 84 110 94 108 80 81 76 70 69 56 65 76 66 66 57 70 66 62 64 59 61 64 78 57 62 58 55 56 59 58 57 68 74 70 64 58 64 66 82 204 167 152 160 144 162 160 157 203 167
54 56 62 72 59 77 58 55 65 73 72 57 55 55 47 53 55 60 77 83 61 69 72 66 59 56 58 60 62 88 79 68 59 81 88 109 103 89 93 75 71 68 67 73 75 78 68 62 73 135 167 139 161 147 70 66 64 63 123 72 66 69 68 68 67 67 71 69 72 77 74 80 91 186 189 171 152 151 160 155 202 156 126 119
100 60 57 66 73 62 79 96 68 69 62 57 89 72 62 56 62 75 58 53 55 68 55 63 54 56 64 76 67 61 72 77 57 68 105 105 103 88 88 113 95 105 89 102 92 102 133 118 152 111 111 107 126 112 109 121 121 131 147 103 118 106 80 130 113 99 127 131 159 150 187 188 194 209 196 184 163 146 179 215 161 129 113 129
69 53 56 60 49 52 52 49 55 51 71 60 61 58 55 53 70 58 85 60 64 53 77 66 92 125 100 70 52 48 64 77 61 45 57 76 86 67 69 61 92 116 111 95 89 98 89 90 75 98 115 133 96 129 84 93 176 127 144 156 184 92 105 99 150 175 189 178 181 204 189 171 179 198 212 179 151 163 200 154 189 130 141 139
104 84 75 87 66 82 57 49 49 74 80 80 89 112 53 91 53 67 88 62 81 83 100 89 92 75 61 66 46 46 46 55 45 53 68 68 53 65 83 97 65 93 68 86 69 86 94 174 113 119 168 109 105 148 141 161 111 196 175 176 118 139 151 121 110 124 139 188 109 147 121 142 132 157 101 126 151 152 134 164 161 139 193 154
50 102 72 56 76 75 73 71 59 61 62 70 79 98 98 81 67 73 57 88 78 89 56 55 51 46 45 49 53 70 52 53 66 76 54 57 50 59 67 56 64 85 60 80 52 55 57 51 61 67 65 66 75 55 69 65 84 74 113 138 155 165 182 173 145 99 119 113 146 172 171 113 164 114 130 131 81 139 130 143 143 159 190 156
60 56 55 78 72 48 49 89 72 68 44 47 72 70 83 77 79 66 76 59 49 60 55 60 63 99 54 62 69 69 62 53 47 50 61 86 52 50 60 64 61 67 53 54 51 55 65 55 63 89 82 55 71 62 57 57 67 76 77 77 72 70 71 69 106 70 79 76 76 139 170 110 99 98 100 74 132 116 110 137 179 194 196 187
107 84 64 69 67 68 62 64 67 97 69 77 64 64 66 64 63 61 55 57 83 58 54 64 49 58 52 54 85 87 96 62 73 70 64 91 79 78 64 71 77 101 61 77 63 92 83 81 82 74 72 71 85 82 77 75 80 71 83 72 70 78 75 72 65 74 64 75 93 159 96 109 83 98 115 88 135 101 102 109 174 157 162 170
67 66 74 79 57 67 60 46 65 45 62 66 60 45 63 42 43 43 68 63 65 72 56 49 46 45 60 80 68 69 70 62 61 67 74 71 70 76 65 107 120 122 111 89 101 88 111 85 94 80 82 87 74 75 72 63 64 66 80 96 89 72 77 75 75 87 81 145 187 111 76 103 133 113 159 137 115 150 173 151 173 200 202 201
104 145 89 91 90 70 46 47 63 70 58 45 61 59 61 59 44 49 41 39 41 69 50 45 64 58 40 40 41 45 49 40 40 40 39 42 67 65 59 63 57 80 89 127 157 172 117 166 159 148 134 122 100 95 83 81 81 75 70 68 80 66 90 71 78 73 105 171 134 123 99 93 86 102 81 151 185 189 176 154 173 194 171 175
88 72 112 95 157 75 83 61 56 67 51 93 54 45 52 41 41 46 48 50 44 65 58 40 66 59 39 39 41 39 48 52 45 40 40 42 40 40 38 57 66 68 66 72 101 95 102 172 131 153 186 198 149 133 138 154 98 114 76 76 75 77 63 64 77 114 102 122 151 160 142 131 125 102 99 151 157 178 188 183 194 177 169 155
69 80 67 85 92 120 135 94 66 89 48 50 70 51 49 41 40 39 55 50 36 44 46 58 52 42 42 41 39 41 39 43 40 38 38 37 37 41 57 55 67 62 47 66 68 69 69 77 141 159 161 127 156 150 168 139 141 152 144 107 88 98 80 77 78 85 135 90 131 184 167 174 132 144 123 145 140 176 192 203 216 173 161 149
52 55 59 66 56 67 64 65 72 79 99 101 89 77 55 58 44 54 50 49 45 45 38 40 37 38 40 62 65 52 44 39 66 40 39 42 39 52 57 38 61 49 53 47 46 59 50 51 60 79 68 108 132 133 150 175 199 189 160 135 112 78 76 82 76 86 105 137 117 186 184 192 158 183 136 162 157 190 162 157 158 190 156 149
54 49 44 53 43 39 41 43 61 67 71 66 92 71 74 81 72 72 79 48 56 51 42 44 39 40 40 49 38 60 48 51 69 60 61 40 52 47 55 38 46 57 56 54 49 61 55 54 64 58 88 76 115 137 152 151 162 195 188 150 105 96 115 80 74 81 87 101 108 178 171 187 186 134 148 218 220 195 226 201 202 177 200 163
56 42 36 70 36 73 55 51 67 52 56 66 64 61 60 85 69 73 73 87 64 80 55 68 49 48 47 51 45 51 48 42 60 76 54 65 59 51 60 41 41 49 59 52 52 52 59 57 60 56 60 83 65 93 120 140 128 184 174 200 148 128 131 95 99 95 130 112 169 177 140 160 177 122 143 211 219 237 224 180 176 179 178 193
70 33 33 37 97 56 46 36 67 57 62 55 41 58 57 50 60 60 63 62 67 70 64 64 67 66 63 64 62 56 53 62 57 46 45 46 55 70 55 56 53 48 58 60 62 61 60 57 59 62 65 69 69 75 89 144 140 185 206 215 146 108 122 95 127 142 118 151 156 121 125 147 161 206 164 161 218 232 223 193 197 218 181 187
89 54 39 60 51 40 64 45 45 38 65 43 42 67 47 47 53 61 97 43 43 56 53 44 73 91 83 92 57 58 59 59 61 62 51 51 64 54 57 60 53 61 58 61 58 62 68 67 63 68 70 77 83 93 91 167 163 177 192 189 149 108 114 140 122 102 151 153 156 157 123 135 198 196 199 166 163 164 217 160 176 190 184 205
62 47 35 67 62 34 41 67 38 36 61 55 38 38 77 58 57 49 48 49 51 54 91 71 64 66 68 66 83 84 98 96 67 80 63 57 65 68 62 66 66 66 72 70 72 73 77 84 81 81 87 89 106 179 179 126 131 199 149 148 140 188 184 116 108 103 142 148 110 101 151 201 203 165 169 172 174 191 171 159 160 171 181 195
52 54 75 38 62 63 33 56 44 57 54 60 55 56 43 63 60 65 63 60 43 58 50 63 49 62 69 64 67 63 66 66 63 70 72 70 91 63 63 64 69 79 87 97 110 134 170 144 146 178 129 128 123 136 143 183 146 148 117 156 147 179 88 90 106 94 125 122 143 206 221 180 186 172 176 187 205 212 191 173 170 181 159 194
37 49 57 63 56 40 55 59 94 58 60 57 64 60 68 68 98 86 78 76 70 65 65 63 71 62 68 75 74 72 83 79 83 78 70 75 77 78 86 115 149 151 169 154 150 155 114 189 160 146 132 154 174 138 124 128 130 122 123 198 176 205 156 151 133 150 162 183 195 209 222 197 202 199 197 194 232 177 171 221 174 169 142 143
40 67 47 59 59 46 49 44 79 65 61 53 66 71 69 65 66 113 136 123 128 114 94 102 93 109 121 135 103 114 131 131 147 156 137 149 117 128 126 145 114 125 106 111 177 178 157 195 152 162 143 181 145 162 145 159 154 121 165 177 213 169 173 152 144 157 170 143 157 174 206 176 176 145 130 191 149 144 142 173 159 118 126 132
119 88 79 74 48 55 44 53 46 58 52 66 78 69 65 99 87 87 114 128 146 137 129 156 140 165 162 154 125 130 165 171 165 176 179 168 157 176 156 127 139 133 130 160 153 187 167 142 151 200 188 151 197 172 143 188 174 214 168 174 148 129 125 149 143 149 174 160 152 180 190 141 138 116 135 169 192 145 141 125 161 138 118 127
127 126 105 117 106 74 81 62 66 63 61 94 85 101 136 127 112 137 142 143 137 163 153 169 113 155 155 120 156 148 167 123 120 116 193 162 160 155 150 141 153 129 121 144 157 180 147 138 137 132 180 198 168 141 132 165 178 187 162 163 149 166 149 125 133 128 135 133 156 166 167 179 188 127 131 119 131 131 127 111 135 115 99 135
137 133 94 122 137 113 93 72 71 78 78 75 84 84 118 102 93 113 148 120 142 155 156 185 172 170 144 189 158 134 113 113 171 153 118 126 126 107 130 106 172 151 142 123 132 170 140 162 172 152 129 178 177 140 153 160 163 166 187 146 140 156 128 118 126 137 130 132 162 165 196 179 174 155 139 126 102 136 113 109 111 126 112 84
117 123 115 108 113 160 145 139 135 119 145 147 158 132 134 154 167 199 203 161 180 171 167 184 166 171 142 128 162 172 119 194 146 122 149 185 155 187 148 142 168 187 193 167 156 159 157 152 163 199 184 167 165 136 144 146 123 129 127 137 116 119 109 128 128 120 133 152 165 176 169 161 141 155 147 135 133 144 108 101 83 120 79 88
111 113 130 115 106 86 97 95 101 130 121 133 167 135 168 143 177 200 183 180 150 165 164 154 162 188 181 181 167 151 132 208 194 197 195 201 195 178 183 181 172 195 159 143 129 138 164 150 158 196 159 145 173 123 125 130 130 120 132 128 117 113 124 122 128 116 117 121 133 125 137 172 162 146 146 136 92 139 86 83 105 100 92 90
44 45 59 84 61 83 95 131 105 94 137 139 119 141 185 194 139 139 144 189 213 176 140 144 143 193 145 211 161 185 197 203 185 166 134 145 198 139 163 181 157 140 162 170 166 162 181 164 186 156 137 146 170 130 132 123 180 143 104 131 114 119 103 130 175 135 130 134 152 158 168 179 163 166 139 138 152 178 172 189 175 143 193 136
65 36 42 48 68 76 98 98 106 107 103 85 96 104 181 116 142 138 135 146 195 168 168 154 159 154 200 187 179 151 163 186 189 138 158 178 158 141 131 160 153 150 175 155 137 171 185 179 172 185 172 193 158 197 188 139 159 150 190 170 163 164 185 194 197 165 150 176 190 185 180 152 132 129 115 121 123 193 166 151 184 169 179 167
30 47 65 32 66 52 87 67 88 72 81 100 90 101 168 133 112 114 155 143 144 164 166 156 166 187 190 170 200 152 201 134 192 137 175 178 101 86 82 78 86 84 87 86 84 84 80 78 76 78 81 112 187 207 217 179 196 215 217 216 153 202 160 218 192 185 154 160 166 187 167 169 205 197 159 166 130 146 180 187 146 188 161 157
26 61 49 67 42 63 67 60 59 71 70 90 213 152 108 109 101 110 118 106 111 130 169 121 197 207 182 200 180 123 152 171 180 214 150 195 94 99 95 108 98 93 97 109 94 89 107 103 85 95 83 107 178 92 72 119 200 203 161 145 201 190 181 214 151 174 142 123 191 171 192 215 194 149 167 124 125 135 141 197 136 108 87 50
25 30 79 26 46 30 82 40 51 41 63 73 176 112 83 124 107 114 101 115 115 120 125 194 166 178 178 164 160 172 139 154 119 130 153 194 92 94 103 96 99 93 95 93 93 92 89 99 91 87 85 87 66 41 28 34 56 190 172 158 166 221 157 191 156 174 178 189 186 209 145 158 158 133 77 77 70 79 92 91 78 62 58 52
59 74 71 61 26 27 43 107 89 52 29 28 63 72 71 61 52 61 49 70 74 73 116 129 138 171 157 144 165 133 101 173 163 167 159 196 90 96 93 101 93 98 111 96 96 94 93 91 90 94 89 109 43 32 28 31 63 166 214 208 175 200 209 196 178 157 153 189 188 145 99 100 93 97 89 93 128 91 82 52 90 98 83 60
72 80 66 69 68 67 100 29 44 71 68 46 32 27 51 35 37 68 67 35 61 70 66 100 109 128 177 202 173 153 140 121 137 179 151 195 89 95 96 98 92 108 107 105 96 95 94 96 98 100 96 109 133 41 29 37 206 168 203 185 187 219 198 169 162 187 137 175 139 154 166 165 141 166 120 86 116 85 86 118 96 89 69 84
69 86 55 41 77 64 76 51 62 53 49 29 32 39 60 56 59 42 68 68 55 67 69 38 45 51 65 93 187 190 166 77 68 71 72 101 89 91 101 94 94 107 111 104 96 99 101 103 107 108 105 124 211 198 80 77 72 88 79 52 87 194 189 182 182 156 164 182 178 136 170 101 118 163 133 167 121 94 79 73 71 64 69 63
76 94 73 79 94 91 85 56 46 56 83 92 98 67 114 100 100 67 78 98 58 70 69 63 69 75 78 189 198 198 172 83 77 83 85 98 93 104 102 99 102 104 105 104 103 107 110 125 131 146 144 211 217 195 151 86 63 58 87 44 55 141 134 184 131 135 180 174 109 176 170 144 106 127 148 88 65 44 90 55 67 91 65 51
31 78 76 67 38 49 44 35 126 148 86 61 64 94 90 123 105 54 50 54 66 60 65 59 63 64 109 198 197 197 177 82 80 80 81 92 90 83 91 92 88 86 87 87 86 88 103 243 227 214 218 189 133 64 59 54 50 48 47 48 67 160 127 174 130 182 170 182 111 108 91 86 80 73 60 48 64 65 83 58 72 114 68 66
56 75 95 70 79 69 75 85 89 107 81 83 82 88 45 57 95 98 127 54 69 47 55 60 69 59 82 200 203 198 181 85 71 72 75 99 163 127 89 95 60 45 47 67 88 118 214 186 171 229 189 98 58 32 25 26 23 23 22 24 26 27 32 56 140 144 76 72 66 71 46 66 43 58 64 64 37 76 53 90 80 82 71 37
71 67 78 76 84 64 72 60 75 63 79 87 57 61 57 87 95 50 62 78 99 99 126 66 78 159 183 155 210 212 195 129 78 119 66 59 46 48 81 111 156 141 117 178 232 152 177 156 169 147 193 70 29 26 23 23 19 21 21 23 20 24 26 77 75 72 77 65 45 69 67 53 65 65 58 88 86 92 105 103 51 35 62 44
50 57 30 25 29 50 31 42 34 48 31 33 69 50 28 28 67 36 39 78 48 85 74 93 93 88 124 119 118 160 94 64 64 68 67 69 70 76 101 107 104 124 237 146 132 183 128 187 135 158 68 46 24 22 19 22 19 22 22 23 21 21 26 39 69 62 53 55 44 58 70 59 59 78 44 90 89 92 88 90 83 91 57 69
24 35 46 39 27 45 44 45 44 25 51 25 43 38 27 27 43 77 80 81 39 51 80 76 68 73 75 77 126 67 96 90 94 67 35 37 31 31 32 53 60 70 80 133 127 137 163 135 84 101 85 24 24 21 21 20 21 21 23 21 21 22 23 74 62 73 48 55 50 65 47 51 23 25 46 99 87 83 86 62 90 93 91 90
24 79 22 23 25 67 67 27 27 56 48 39 35 71 62 38 35 39 25 36 54 34 41 29 36 69 36 44 132 193 196 186 126 68 61 55 50 44 47 44 28 28 29 79 83 94 59 148 106 62 67 23 23 22 19 23 22 21 19 19 22 23 25 24 65 76 60 65 25 26 80 46 27 43 89 76 71 58 38 61 34 109 106 88
39 35 57 25 45 29 41 65 67 31 43 49 44 46 60 32 25 47 26 29 42 40 36 28 39 71 40 49 131 195 201 203 124 84 74 74 74 78 79 67 26 46 78 161 242 202 230 195 99 43 22 25 23 22 21 23 21 20 21 21 21 22 23 34 23 59 51 30 51 43 30 27 52 41 70 71 79 77 49 43 66 58 62 76
62 102 67 26 52 28 45 29 42 68 62 74 100 85 76 50 51 36 45 40 59 79 70 77 38 31 37 52 194 201 191 200 132 53 48 75 75 71 34 38 26 46 82 159 207 199 204 179 237 94 36 23 20 20 22 19 21 22 23 21 23 21 21 42 44 50 55 43 56 46 84 86 66 63 117 77 79 96 114 125 121 75 40 76
55 43 59 76 61 50 45 36 64 54 79 51 47 53 39 34 70 40 80 61 80 46 31 43 28 30 42 58 180 202 197 204 131 82 74 71 70 74 72 71 27 23 72 79 72 106 134 105 61 73 68 21 23 21 21 21 20 21 21 22 23 23 22 54 102 74 56 61 25 27 25 27 76 59 33 47 65 73 69 42 35 30 98 61
64 80 52 57 64 52 70 93 75 69 72 62 64 64 63 69 76 60 52 41 95 64 90 68 51 71 136 51 155 206 207 206 146 78 73 67 70 72 75 72 27 25 46 90 90 56 27 173 34 75 69 20 23 23 24 22 19 23 21 22 20 24 21 54 74 89 77 27 22 23 25 30 22 26 62 26 27 28 29 29 30 67 36 76
152 36 45 34 30 35 43 71 40 45 80 45 84 75 49 49 66 62 84 70 80 86 45 58 66 77 68 58 94 204 207 197 82 75 65 61 55 53 54 55 24 24 22 66 78 70 53 22 57 68 84 26 23 21 23 25 24 29 22 26 39 50 51 48 78 84 68 28 25 24 28 28 22 24 24 24 23 26 22 26 28 33 48 84
28 39 28 22 37 33 35 59 37 33 32 27 81 37 49 51 139 73 98 127 96 79 42 74 56 39 32 34 37 47 87 88 62 64 64 65 68 70 69 63 24 27 26 51 74 77 81 23 23 23 22 23 24 85 25 50 56 56 43 24 26 54 50 50 86 83 71 25 23 27 24 24 23 23 24 22 27 24 27 30 75 71 114 114
21 38 22 23 26 25 83 57 29 23 29 32 67 79 48 95 164 167 178 95 51 38 76 55 33 29 31 43 127 57 54 57 116 65 60 58 53 49 49 53 28 23 25 22 21 24 67 53 23 20 21 24 25 38 27 49 51 48 51 47 48 45 41 40 23 23 21 22 23 24 23 22 26 29 42 50 54 70 62 62 72 67 62 68
24 18 22 35 27 22 20 22 24 24 34 28 52 87 50 139 159 129 66 56 78 80 160 85 83 35 87 174 182 163 76 184 160 93 71 52 41 52 54 49 23 24 23 28 24 37 41 37 33 28 51 102 125 116 47 34 42 41 41 38 39 38 37 33 21 24 22 23 24 25 33 31 50 72 66 51 52 37 56 66 183 178 143 88
17 21 21 25 21 20 23 23 33 42 36 26 59 47 64 81 109 88 73 70 93 76 152 85 68 84 111 125 58 153 168 167 132 40 39 36 62 137 169 38 37 36 33 36 37 36 46 36 45 68 111 59 45 41 70 75 94 105 29 22 25 25 20 22 22 69 94 70 92 98 73 35 55 67 98 100 108 132 127 115 134 122 181 160
21 22 19 20 18 19 19 20 22 22 22 20 23 23 38 34 47 79 68 56 36 39 38 34 45 42 91 116 110 100 132 157 83 127 180 108 153 161 109 49 50 134 53 64 153 137 101 119 89 68 155 121 55 80 120 107 145 148 45 39 42 89 99 118 114 115 120 89 73 77 74 49 121 99 141 136 99 176 156 146 151 146 176 76
22 19 18 19 19 20 19 20 18 20 21 19 21 21 28 27 33 28 28 46 68 30 33 26 37 48 29 105 84 87 116 98 122 113 116 129 120 132 141 107 91 124 106 102 119 82 121 152 160 167 183 63 69 95 71 68 131 156 119 182 76 128 161 118 139 118 100 108 108 140 106 115 119 94 156 156 185 120 164 154 142 95 117 95
